svg/fluentui-system-icons/ic_fluent_signature_16_filled.svg

<svg width="16" height="16" viewBox="0 0 16 16" fill="none" xmlns="http://www.w3.org/2000/svg">
<path d="M12.4786 1.77166C11.5239 0.817002 9.97611 0.816999 9.02146 1.77165L2.39646 8.39666C2.34157 8.45154 2.30022 8.51846 2.27567 8.59209L1.02567 12.3421C0.96796 12.5152 1.00916 12.706 1.13315 12.8399C1.25714 12.9738 1.44424 13.0295 1.62128 12.9853L5.62128 11.9853C5.70919 11.9633 5.78948 11.9178 5.85356 11.8538L11.5 6.20734L11.5858 6.29314C11.9763 6.68366 11.9763 7.31683 11.5858 7.70735L10.1464 9.14669C9.95118 9.34195 9.95118 9.65854 10.1464 9.8538C10.3417 10.0491 10.6583 10.0491 10.8536 9.8538L12.2929 8.41446C13.0739 7.63341 13.0739 6.36708 12.2929 5.58603L12.2071 5.50023L12.4786 5.22876C13.4332 4.27411 13.4332 2.72631 12.4786 1.77166ZM4.96666 15.0001C3.73162 15.0001 2.75917 14.4336 2.11173 13.8934L3.39642 13.5723C3.84174 13.8218 4.36919 14.0001 4.96666 14.0001C5.37205 14.0001 5.79005 13.8361 6.23585 13.5432C6.6826 13.2497 7.11407 12.8563 7.5497 12.4479L7.66313 12.3413C8.04752 11.98 8.4472 11.6043 8.82928 11.3445C9.23733 11.0671 9.7781 10.815 10.3462 11.0336C10.7215 11.1779 10.9652 11.4445 11.1371 11.7703C11.2983 12.0757 11.4093 12.4584 11.5173 12.8746C11.5667 13.0647 11.6504 13.2486 11.7463 13.3728C11.793 13.4335 11.8333 13.4678 11.8614 13.4851C11.8861 13.5003 11.8971 13.5002 11.8999 13.5002C12.0218 13.5002 12.231 13.4178 12.5299 13.2144C12.7153 13.0882 12.8736 12.9618 13.0321 12.8354C13.1304 12.757 13.2288 12.6784 13.3338 12.5999C13.6127 12.3912 13.8544 12.2511 14.0314 12.1616C14.1198 12.1168 14.1922 12.0847 14.245 12.0629C14.2714 12.0519 14.2929 12.0436 14.3091 12.0376L14.3294 12.0302L14.3365 12.0277L14.3392 12.0268L14.3404 12.0264C14.3405 12.0264 14.3414 12.0261 14.5 12.5002L14.3414 12.0261C14.6033 11.9385 14.8866 12.0798 14.9742 12.3417C15.0614 12.6024 14.9217 12.8843 14.662 12.9733L14.6581 12.9747C14.6527 12.9767 14.6422 12.9807 14.627 12.987C14.5966 12.9996 14.5475 13.0212 14.4828 13.0539C14.3534 13.1194 14.1617 13.2293 13.9329 13.4006C13.8743 13.4444 13.7977 13.5052 13.7103 13.5745C13.529 13.7184 13.3012 13.899 13.0925 14.0411C12.7816 14.2527 12.351 14.5003 11.9 14.5002C11.4644 14.5002 11.1488 14.2355 10.9545 13.9837C10.7562 13.7266 10.6232 13.4104 10.5494 13.1258C10.4397 12.7033 10.3528 12.4266 10.2527 12.2369C10.1634 12.0677 10.0827 12.0036 9.98715 11.9669C9.90523 11.9354 9.74183 11.9333 9.39155 12.1715C9.07852 12.3843 8.73735 12.7046 8.33353 13.0837L8.23363 13.1774C7.8026 13.5815 7.31323 14.0319 6.78497 14.3789C6.25577 14.7267 5.64461 15.0001 4.96666 15.0001Z" fill="#212121"/>
</svg>

<svg xmlns="http://www.w3.org/2000/svg" width="16" height="16"><path d="M12.479 1.772a2.445 2.445 0 0 0-3.458 0L2.396 8.397a.5.5 0 0 0-.12.195l-1.25 3.75a.5.5 0 0 0 .595.643l4-1a.5.5 0 0 0 .233-.131L11.5 6.207l.086.086a1 1 0 0 1 0 1.414l-1.44 1.44a.5.5 0 0 0 .708.707l1.439-1.44a2 2 0 0 0 0-2.828l-.086-.086.272-.271a2.445 2.445 0 0 0 0-3.457ZM4.967 15c-1.235 0-2.208-.566-2.855-1.107l1.284-.32a3.2 3.2 0 0 0 1.57.427c.406 0 .824-.164 1.27-.457.447-.293.878-.687 1.314-1.095l.113-.107c.385-.361.784-.737 1.166-.996.408-.278.95-.53 1.517-.311.376.144.62.41.791.736.161.306.272.688.38 1.105.05.19.133.374.23.498a.46.46 0 0 0 .114.112c.025.015.036.015.039.015.122 0 .331-.082.63-.286.185-.126.344-.252.502-.379.098-.078.197-.157.302-.235.279-.209.52-.349.697-.438a3.05 3.05 0 0 1 .278-.124l.02-.008.007-.002.003-.001h.001l.16.473-.159-.474a.5.5 0 0 1 .321.947l-.004.002a2.141 2.141 0 0 0-.175.08c-.13.064-.321.174-.55.346-.059.043-.135.104-.223.174-.181.143-.409.324-.618.466-.31.212-.741.46-1.192.46-.436 0-.751-.265-.946-.517a2.435 2.435 0 0 1-.405-.858c-.11-.423-.196-.7-.296-.89-.09-.168-.17-.232-.266-.27-.082-.03-.245-.033-.595.206-.313.212-.655.533-1.058.912l-.1.093c-.431.405-.92.855-1.449 1.202-.53.348-1.14.621-1.818.621Z"/></svg>
